X: 1
T: Dusty Bob's -- Jig
B: Ryan's Mammoth Collection of Fiddle Tunes
R: jig
M: 6/8
L: 1/8
Z: Contributed 20000421150940 by John Chambers jchambers:casc.com
K: G
D \
| G2G GAB | A2A ABc | d2B c2A | B2G AFE |
| G2G GAB | A2A ABc | dBG cAF | G3 G2 :|
|: d \
| g2g gag | f2f fgf | e2d efg | a2g fed |
|1 g2g gag | f2f fgf | efg fga | g3 g2 |
:|2 g3 Bcd | e3 ABc | dcB AGF | G3 G2 |]
